Sources/FrostedUI/Resources/Icons.xcassets/lightbulb24.imageset/lightbulb-24.svg

<svg width="24" height="24" viewBox="0 0 24 24" fill="none" xmlns="http://www.w3.org/2000/svg" data-fui-icon="true">
  <path
    d="M12 0.5C16.9706 0.5 21 4.52944 21 9.5C21 12.4703 19.5602 15.1043 17.3438 16.7422C16.9109 17.062 16.65 17.4887 16.6182 17.917L16.5459 18.8955C16.4632 20.0113 15.7361 20.9331 14.7461 21.3125C14.7128 22.8024 13.4979 24 12 24C10.5021 24 9.28618 22.8024 9.25293 21.3125C8.26338 20.9329 7.53682 20.011 7.4541 18.8955L7.38184 17.917C7.35001 17.4887 7.0891 17.062 6.65625 16.7422C4.43984 15.1043 3 12.4703 3 9.5C3 4.52944 7.02944 0.5 12 0.5ZM10.7754 21.5C10.8912 22.0705 11.3953 22.5 12 22.5C12.6047 22.5 13.1088 22.0705 13.2246 21.5H10.7754ZM12 2C7.85786 2 4.5 5.35786 4.5 9.5C4.5 11.9744 5.69755 14.1689 7.54785 15.5361C8.24013 16.0477 8.80631 16.8398 8.87793 17.8066L8.9502 18.7842C9.00096 19.4694 9.57168 19.9998 10.2588 20H10.376L8.82129 9.86328C8.78049 9.59629 8.88645 9.32827 9.09863 9.16113C9.31107 8.99391 9.59753 8.95305 9.84766 9.05566L10.7129 9.41113L11.6074 8.86133C11.8484 8.71319 12.1526 8.71305 12.3936 8.86133L13.2871 9.41113L14.1533 9.05566C14.4033 8.95335 14.6891 8.99404 14.9014 9.16113C15.1136 9.32827 15.2195 9.59628 15.1787 9.86328L13.624 20H13.7412C14.4283 19.9998 14.999 19.4694 15.0498 18.7842L15.1221 17.8066C15.1937 16.8398 15.7599 16.0477 16.4521 15.5361C18.3024 14.1689 19.5 11.9744 19.5 9.5C19.5 5.35786 16.1421 2 12 2ZM11.1748 10.8887C10.9732 11.0127 10.7246 11.0343 10.5049 10.9473L11.8936 20H12.1064L13.4951 10.9473C13.2755 11.0343 13.0277 11.0125 12.8262 10.8887L12 10.3809L11.1748 10.8887Z"
    fill="currentColor"
  />
</svg>

<svg xmlns="http://www.w3.org/2000/svg" width="24" height="24" fill="none" data-fui-icon="true" viewBox="0 0 24 24"><path fill="currentColor" d="M12 .5a9 9 0 0 1 5.344 16.242c-.433.32-.694.747-.726 1.175l-.072.978a2.81 2.81 0 0 1-1.8 2.418 2.747 2.747 0 0 1-5.493 0 2.81 2.81 0 0 1-1.799-2.418l-.072-.978c-.032-.428-.293-.855-.726-1.175A9 9 0 0 1 12 .5m-1.225 21a1.25 1.25 0 0 0 2.45 0zM12 2a7.5 7.5 0 0 0-4.452 13.536c.692.512 1.258 1.304 1.33 2.27l.072.978C9.001 19.47 9.572 20 10.26 20h.117L8.821 9.863a.75.75 0 0 1 1.027-.807l.865.355.894-.55a.75.75 0 0 1 .787 0l.893.55.866-.355a.75.75 0 0 1 1.026.807L13.624 20h.117c.687 0 1.258-.53 1.309-1.216l.072-.977c.072-.967.638-1.76 1.33-2.27A7.5 7.5 0 0 0 12 2m-.825 8.889a.75.75 0 0 1-.67.058L11.894 20h.212l1.39-9.053a.75.75 0 0 1-.67-.058L12 10.38z"/></svg>
